src/pos-icons/earth-box-off.svg

<svg height="24" viewBox="0 0 24 24" width="24" xmlns="http://www.w3.org/2000/svg"><path d="m23 4.27-2 2v12.73a2 2 0 0 1 -2 2h-12.73l-2 2-1.27-1.28 18.72-18.72zm-18-1.27h14.18l-2 2h-1.4c-.11 1-.95 1.79-1.98 1.79h-2v2c0 .56-.45 1-1 1h-2v2h1.58l-1.83 1.83-3.55-3.33v6.89l-2 2v-14.18c0-1.11.89-2 2-2m6.8 16v-1.21c-.63 0-1.2-.29-1.57-.75l-1.96 1.96zm4-6.21v3h1c.89 0 1.94.59 2.2 1.39v-8.91l-3.67 3.67c.28.18.47.49.47.85z"/></svg>

<?xml version="1.0" encoding="UTF-8"?><!DOCTYPE svg PUBLIC "-//W3C//DTD SVG 1.1//EN" "http://www.w3.org/Graphics/SVG/1.1/DTD/svg11.dtd"><svg xmlns="http://www.w3.org/2000/svg" xmlns:xlink="http://www.w3.org/1999/xlink" version="1.1" id="mdi-earth-box-off" width="24" height="24" viewBox="0 0 24 24"><path d="M23,4.27L21,6.27V19A2,2 0 0,1 19,21H6.27L4.27,23L3,21.72L21.72,3L23,4.27M5,3H19.18L17.18,5H15.78C15.67,6 14.83,6.79 13.8,6.79H11.8V8.79C11.8,9.35 11.35,9.79 10.8,9.79H8.8V11.79H10.38L8.55,13.62L5,10.29V17.18L3,19.18V5C3,3.89 3.89,3 5,3M11.8,19V17.79C11.17,17.79 10.6,17.5 10.23,17.04L8.27,19H11.8M15.8,12.79V15.79H16.8C17.69,15.79 18.74,16.38 19,17.18V8.27L15.33,11.94C15.61,12.12 15.8,12.43 15.8,12.79Z" /></svg>
